Newaita-dark/apps/32/haguichi.svg

<svg height="32" viewBox="0 0 32 32" width="32" xmlns="http://www.w3.org/2000/svg" xmlns:xlink="http://www.w3.org/1999/xlink"><linearGradient id="a" gradientUnits="userSpaceOnUse" x1="15.87652" x2="15.87652" y1="28.033936" y2="29.35698000003"><stop offset="0" stop-opacity=".27451"/><stop offset="1" stop-opacity="0"/></linearGradient><linearGradient id="b"><stop offset="0" stop-opacity=".313726"/><stop offset=".222222" stop-opacity=".27451"/><stop offset="1" stop-opacity="0"/></linearGradient><radialGradient id="c" cx="450.908936" cy="189.579361" gradientTransform="matrix(.00000017 -.0781325 -.140638 -.0000001 52.130648 63.595333)" gradientUnits="userSpaceOnUse" r="21.166656" xlink:href="#b"/><radialGradient id="d" cx="450.908936" cy="189.579361" gradientTransform="matrix(-.00000017 .0781325 .140638 .0000001 -20.377613 -7.527479)" gradientUnits="userSpaceOnUse" r="21.166656" xlink:href="#b"/><radialGradient id="e" cx="450.908936" cy="189.579361" gradientTransform="matrix(-.00000017 -.0781325 .140638 -.0000001 -20.377613 63.595333)" gradientUnits="userSpaceOnUse" r="21.166656" xlink:href="#b"/><radialGradient id="f" cx="450.908936" cy="189.579361" gradientTransform="matrix(.00000017 .0781325 -.140638 .0000001 52.130646 -7.527479)" gradientUnits="userSpaceOnUse" r="21.166656" xlink:href="#b"/><linearGradient id="g" gradientUnits="userSpaceOnUse" x1="10.58434899997" x2="10.58434899997" y1="28.033934" y2="2.89610500006"><stop offset="0" stop-color="#f44336"/><stop offset="1" stop-color="#ef5350"/></linearGradient><linearGradient id="h" gradientUnits="userSpaceOnUse" x1="15.876524" x2="15.876524" y1="28.033934" y2="2.89610500006"><stop offset="0" stop-color="#bdbdbd"/><stop offset="1" stop-color="#e0e0e0"/></linearGradient><path d="m5.953125 27.9375h19.847656v1.46875h-19.847656zm0 0" fill="url(#a)"/><path d="m25.800781 28.035156h2.644531v-1.324218h-2.644531zm0 0" fill="url(#c)"/><path d="m5.953125 28.035156h-2.644531v1.320313h2.644531zm0 0" fill="url(#d)"/><path d="m5.953125 28.035156h-2.644531v-1.324218h2.644531zm0 0" fill="url(#e)"/><path d="m25.800781 28.035156h2.644531v1.320313h-2.644531zm0 0" fill="url(#f)"/><path d="m4.628906 2.894531h22.492188c.730468 0 1.324218.59375 1.324218 1.324219v22.492188c0 .730468-.59375 1.324218-1.324218 1.324218h-22.492188c-.730468 0-1.320312-.59375-1.320312-1.324218v-22.492188c0-.730469.589844-1.324219 1.320312-1.324219zm0 0" fill="url(#g)"/><path d="m4.628906 2.894531c-.730468 0-1.320312.589844-1.320312 1.324219v.164062c0-.730468.589844-1.324218 1.320312-1.320312h22.492188c.734375-.003906 1.324218.589844 1.324218 1.320312v-.164062c0-.734375-.589843-1.324219-1.324218-1.324219zm0 0" fill="#e6e6e6" fill-opacity=".392157"/><path d="m4.628906 28.035156c-.730468 0-1.320312-.589844-1.320312-1.324218v-.164063c0 .730469.589844 1.320313 1.320312 1.320313h22.492188c.734375 0 1.324218-.589844 1.324218-1.320313v.164063c0 .734374-.589843 1.324218-1.324218 1.324218zm0 0" fill-opacity=".196078"/><path d="m74.055428-168.691922h359.840637c11.686384 0 21.185477 9.499093 21.185477 21.185477v359.840637c0 11.686384-9.499093 21.185477-21.185477 21.185477h-359.840637c-11.686384 0-21.122983-9.499093-21.122983-21.185477v-359.840637c0-11.686384 9.436599-21.185477 21.122983-21.185477zm0 0" fill="none" stroke="#212121" stroke-linecap="round" stroke-width="3" transform="matrix(.062506 0 0 .062506 0 13.438783)"/><path d="m15.875 6.867188c-.195312 0-.378906.085937-.507812.238281l-6.613282 7.9375c-.203125.246093-.203125.601562 0 .84375l6.613282 7.9375c.128906.152343.3125.238281.507812.238281h3.96875c.5625 0 .867188-.652344.507812-1.082031l-5.570312-6.6875-3.039062 1.984375 2.359374-2.800782-.011718-.011718 6.261718-7.515625c.359376-.429688.054688-1.082031-.507812-1.082031zm0 0" fill="url(#h)"/><path d="m15.875 6.867188c-.195312 0-.378906.085937-.507812.238281l-6.613282 7.9375c-.128906.15625-.175781.355469-.140625.546875.019531-.109375.066407-.210938.140625-.300782l6.613282-7.9375c.128906-.152343.3125-.238281.507812-.238281h3.96875c.347656 0 .597656.25.652344.539063.074218-.382813-.210938-.785156-.652344-.785156zm-1.09375 9.425781-2.578125 1.683593-.460937.546876 3.039062-1.980469 5.570312 6.683593c.078126.09375.125.195313.144532.296876.035156-.179688-.007813-.378907-.144532-.542969zm0 0" fill="#fff"/><path d="m20.484375 7.78125c-.023437.085938-.066406.167969-.132813.246094l-6.261718 7.515625.011718.011719-2.359374 2.800781.648437-.425781 1.710937-2.027344-.011718-.011719 6.261718-7.515625c.152344-.179688.183594-.398438.132813-.59375zm-11.859375 7.933594c-.054688.203125-.011719.429687.128906.597656l6.613282 7.9375c.128906.152344.3125.238281.507812.238281h3.96875c.460938 0 .75-.441406.640625-.835937-.074219.269531-.3125.488281-.640625.488281h-3.96875c-.195312 0-.378906-.085937-.507812-.238281l-6.613282-7.9375c-.0625-.074219-.105468-.160156-.128906-.25zm0 0" fill-opacity=".235294"/><path d="m959.908384 415.235959c-11.809897 0-22.911199 5.196355-30.705731 14.408074l-399.883094 479.954192c-12.282292 14.880469-12.282292 36.374481 0 51.018753l399.883094 479.954191c7.794532 9.21172 18.895834 14.408074 30.705731 14.408074h239.977096c34.012502 0 52.43594-39.445054 30.705731-65.426826l-336.818247-404.370855-183.761989 119.988548 142.663549-169.353915-.708594-.708594 378.625281-454.444815c21.730209-25.981773 3.306771-65.426827-30.705731-65.426827zm0 0" fill="none" stroke="#212121" stroke-linecap="round" stroke-linejoin="round" stroke-width="11.338583" transform="scale(.016538)"/></svg>

<?xml version="1.0" encoding="UTF-8"?>
<svg xmlns="http://www.w3.org/2000/svg" xmlns:xlink="http://www.w3.org/1999/xlink" width="32px" height="32px" viewBox="0 0 32 32" version="1.1">
<defs>
<linearGradient id="linear0" gradientUnits="userSpaceOnUse" x1="254" y1="233.5" x2="254" y2="254.666672" gradientTransform="matrix(0.062506,0,0,0.062506,-0.00000381506,13.438785)">
<stop offset="0" style="stop-color:rgb(0%,0%,0%);stop-opacity:0.27451;"/>
<stop offset="1" style="stop-color:rgb(0%,0%,0%);stop-opacity:0;"/>
</linearGradient>
<radialGradient id="radial0" gradientUnits="userSpaceOnUse" cx="450.908936" cy="189.579361" fx="450.908936" fy="189.579361" r="21.166656" gradientTransform="matrix(0.00000017417,-0.0781325,-0.140638,-0.000000101539,52.130648,63.595333)">
<stop offset="0" style="stop-color:rgb(0%,0%,0%);stop-opacity:0.313726;"/>
<stop offset="0.222222" style="stop-color:rgb(0%,0%,0%);stop-opacity:0.27451;"/>
<stop offset="1" style="stop-color:rgb(0%,0%,0%);stop-opacity:0;"/>
</radialGradient>
<radialGradient id="radial1" gradientUnits="userSpaceOnUse" cx="450.908936" cy="189.579361" fx="450.908936" fy="189.579361" r="21.166656" gradientTransform="matrix(-0.00000017417,0.0781325,0.140638,0.000000101539,-20.377613,-7.527479)">
<stop offset="0" style="stop-color:rgb(0%,0%,0%);stop-opacity:0.313726;"/>
<stop offset="0.222222" style="stop-color:rgb(0%,0%,0%);stop-opacity:0.27451;"/>
<stop offset="1" style="stop-color:rgb(0%,0%,0%);stop-opacity:0;"/>
</radialGradient>
<radialGradient id="radial2" gradientUnits="userSpaceOnUse" cx="450.908936" cy="189.579361" fx="450.908936" fy="189.579361" r="21.166656" gradientTransform="matrix(-0.00000017417,-0.0781325,0.140638,-0.000000101539,-20.377613,63.595333)">
<stop offset="0" style="stop-color:rgb(0%,0%,0%);stop-opacity:0.313726;"/>
<stop offset="0.222222" style="stop-color:rgb(0%,0%,0%);stop-opacity:0.27451;"/>
<stop offset="1" style="stop-color:rgb(0%,0%,0%);stop-opacity:0;"/>
</radialGradient>
<radialGradient id="radial3" gradientUnits="userSpaceOnUse" cx="450.908936" cy="189.579361" fx="450.908936" fy="189.579361" r="21.166656" gradientTransform="matrix(0.00000017417,0.0781325,-0.140638,0.000000101539,52.130646,-7.527479)">
<stop offset="0" style="stop-color:rgb(0%,0%,0%);stop-opacity:0.313726;"/>
<stop offset="0.222222" style="stop-color:rgb(0%,0%,0%);stop-opacity:0.27451;"/>
<stop offset="1" style="stop-color:rgb(0%,0%,0%);stop-opacity:0;"/>
</radialGradient>
<linearGradient id="linear1" gradientUnits="userSpaceOnUse" x1="169.333328" y1="233.5" x2="169.333328" y2="-168.666656" gradientTransform="matrix(0.062506,0,0,0.062506,0,13.438783)">
<stop offset="0" style="stop-color:rgb(95.686275%,26.274511%,21.176471%);stop-opacity:1;"/>
<stop offset="1" style="stop-color:rgb(93.725491%,32.549021%,31.37255%);stop-opacity:1;"/>
</linearGradient>
<linearGradient id="linear2" gradientUnits="userSpaceOnUse" x1="254" y1="233.5" x2="254" y2="-168.666656" gradientTransform="matrix(0.062506,0,0,0.062506,0,13.438783)">
<stop offset="0" style="stop-color:rgb(74.117649%,74.117649%,74.117649%);stop-opacity:1;"/>
<stop offset="1" style="stop-color:rgb(87.843138%,87.843138%,87.843138%);stop-opacity:1;"/>
</linearGradient>
</defs>
<g id="surface1">
<path style=" stroke:none;fill-rule:nonzero;fill:url(#linear0);" d="M 5.953125 27.9375 L 25.800781 27.9375 L 25.800781 29.40625 L 5.953125 29.40625 Z M 5.953125 27.9375 "/>
<path style=" stroke:none;fill-rule:nonzero;fill:url(#radial0);" d="M 25.800781 28.035156 L 28.445312 28.035156 L 28.445312 26.710938 L 25.800781 26.710938 Z M 25.800781 28.035156 "/>
<path style=" stroke:none;fill-rule:nonzero;fill:url(#radial1);" d="M 5.953125 28.035156 L 3.308594 28.035156 L 3.308594 29.355469 L 5.953125 29.355469 Z M 5.953125 28.035156 "/>
<path style=" stroke:none;fill-rule:nonzero;fill:url(#radial2);" d="M 5.953125 28.035156 L 3.308594 28.035156 L 3.308594 26.710938 L 5.953125 26.710938 Z M 5.953125 28.035156 "/>
<path style=" stroke:none;fill-rule:nonzero;fill:url(#radial3);" d="M 25.800781 28.035156 L 28.445312 28.035156 L 28.445312 29.355469 L 25.800781 29.355469 Z M 25.800781 28.035156 "/>
<path style=" stroke:none;fill-rule:nonzero;fill:url(#linear1);" d="M 4.628906 2.894531 L 27.121094 2.894531 C 27.851562 2.894531 28.445312 3.488281 28.445312 4.21875 L 28.445312 26.710938 C 28.445312 27.441406 27.851562 28.035156 27.121094 28.035156 L 4.628906 28.035156 C 3.898438 28.035156 3.308594 27.441406 3.308594 26.710938 L 3.308594 4.21875 C 3.308594 3.488281 3.898438 2.894531 4.628906 2.894531 Z M 4.628906 2.894531 "/>
<path style=" stroke:none;fill-rule:nonzero;fill:rgb(90.196079%,90.196079%,90.196079%);fill-opacity:0.392157;" d="M 4.628906 2.894531 C 3.898438 2.894531 3.308594 3.484375 3.308594 4.21875 L 3.308594 4.382812 C 3.308594 3.652344 3.898438 3.058594 4.628906 3.0625 L 27.121094 3.0625 C 27.855469 3.058594 28.445312 3.652344 28.445312 4.382812 L 28.445312 4.21875 C 28.445312 3.484375 27.855469 2.894531 27.121094 2.894531 Z M 4.628906 2.894531 "/>
<path style=" stroke:none;fill-rule:nonzero;fill:rgb(0%,0%,0%);fill-opacity:0.196078;" d="M 4.628906 28.035156 C 3.898438 28.035156 3.308594 27.445312 3.308594 26.710938 L 3.308594 26.546875 C 3.308594 27.277344 3.898438 27.867188 4.628906 27.867188 L 27.121094 27.867188 C 27.855469 27.867188 28.445312 27.277344 28.445312 26.546875 L 28.445312 26.710938 C 28.445312 27.445312 27.855469 28.035156 27.121094 28.035156 Z M 4.628906 28.035156 "/>
<path style="fill:none;stroke-width:3;stroke-linecap:round;stroke-linejoin:miter;stroke:rgb(12.941177%,12.941177%,12.941177%);stroke-opacity:1;stroke-miterlimit:4;" d="M 74.055428 -168.691922 L 433.896065 -168.691922 C 445.582449 -168.691922 455.081542 -159.192829 455.081542 -147.506445 L 455.081542 212.334192 C 455.081542 224.020576 445.582449 233.519669 433.896065 233.519669 L 74.055428 233.519669 C 62.369044 233.519669 52.932445 224.020576 52.932445 212.334192 L 52.932445 -147.506445 C 52.932445 -159.192829 62.369044 -168.691922 74.055428 -168.691922 Z M 74.055428 -168.691922 " transform="matrix(0.062506,0,0,0.062506,0,13.438783)"/>
<path style=" stroke:none;fill-rule:nonzero;fill:url(#linear2);" d="M 15.875 6.867188 C 15.679688 6.867188 15.496094 6.953125 15.367188 7.105469 L 8.753906 15.042969 C 8.550781 15.289062 8.550781 15.644531 8.753906 15.886719 L 15.367188 23.824219 C 15.496094 23.976562 15.679688 24.0625 15.875 24.0625 L 19.84375 24.0625 C 20.40625 24.0625 20.710938 23.410156 20.351562 22.980469 L 14.78125 16.292969 L 11.742188 18.277344 L 14.101562 15.476562 L 14.089844 15.464844 L 20.351562 7.949219 C 20.710938 7.519531 20.40625 6.867188 19.84375 6.867188 Z M 15.875 6.867188 "/>
<path style=" stroke:none;fill-rule:nonzero;fill:rgb(100%,100%,100%);fill-opacity:1;" d="M 15.875 6.867188 C 15.679688 6.867188 15.496094 6.953125 15.367188 7.105469 L 8.753906 15.042969 C 8.625 15.199219 8.578125 15.398438 8.613281 15.589844 C 8.632812 15.480469 8.679688 15.378906 8.753906 15.289062 L 15.367188 7.351562 C 15.496094 7.199219 15.679688 7.113281 15.875 7.113281 L 19.84375 7.113281 C 20.191406 7.113281 20.441406 7.363281 20.496094 7.652344 C 20.570312 7.269531 20.285156 6.867188 19.84375 6.867188 Z M 14.78125 16.292969 L 12.203125 17.976562 L 11.742188 18.523438 L 14.78125 16.542969 L 20.351562 23.226562 C 20.429688 23.320312 20.476562 23.421875 20.496094 23.523438 C 20.53125 23.34375 20.488281 23.144531 20.351562 22.980469 Z M 14.78125 16.292969 "/>
<path style=" stroke:none;fill-rule:nonzero;fill:rgb(0%,0%,0%);fill-opacity:0.235294;" d="M 20.484375 7.78125 C 20.460938 7.867188 20.417969 7.949219 20.351562 8.027344 L 14.089844 15.542969 L 14.101562 15.554688 L 11.742188 18.355469 L 12.390625 17.929688 L 14.101562 15.902344 L 14.089844 15.890625 L 20.351562 8.375 C 20.503906 8.195312 20.535156 7.976562 20.484375 7.78125 Z M 8.625 15.714844 C 8.570312 15.917969 8.613281 16.144531 8.753906 16.3125 L 15.367188 24.25 C 15.496094 24.402344 15.679688 24.488281 15.875 24.488281 L 19.84375 24.488281 C 20.304688 24.488281 20.59375 24.046875 20.484375 23.652344 C 20.410156 23.921875 20.171875 24.140625 19.84375 24.140625 L 15.875 24.140625 C 15.679688 24.140625 15.496094 24.054688 15.367188 23.902344 L 8.753906 15.964844 C 8.691406 15.890625 8.648438 15.804688 8.625 15.714844 Z M 8.625 15.714844 "/>
<path style="fill:none;stroke-width:11.338583;stroke-linecap:round;stroke-linejoin:round;stroke:rgb(12.941177%,12.941177%,12.941177%);stroke-opacity:1;stroke-miterlimit:4;" d="M 959.908384 415.235959 C 948.098487 415.235959 936.997185 420.432314 929.202653 429.644033 L 529.319559 909.598225 C 517.037267 924.478694 517.037267 945.972706 529.319559 960.616978 L 929.202653 1440.571169 C 936.997185 1449.782889 948.098487 1454.979243 959.908384 1454.979243 L 1199.88548 1454.979243 C 1233.897982 1454.979243 1252.32142 1415.534189 1230.591211 1389.552417 L 893.772964 985.181562 L 710.010975 1105.17011 L 852.674524 935.816195 L 851.96593 935.107601 L 1230.591211 480.662786 C 1252.32142 454.681013 1233.897982 415.235959 1199.88548 415.235959 Z M 959.908384 415.235959 " transform="matrix(0.016538,0,0,0.016538,0,0)"/>
</g>
</svg>
